!!!!SEGMENT: pl-kk--kk-i-6--039-004_anonim--missa-de-nativitate-agnus-dei.krn
!!!cenid: 16xx:1029
!!!COM: Anonim
!!!COM-rismid: pe30004985
!!!CDT:
!!!CNT:
!!!OTL: Missa de Nativitate – Agnus Dei
!!!PDT:
!!!AGN: Sacred; Mass
!!!SMS-siglum: PL-Kk
!!!SMS-shelfmark: Kk.I.6
!!!SMS-shelfwork: 039-004 M
!!!SMS-variant:
!!!SMS-altvar:
!!!NIFC-rismid: 1001136501
!!!URL-scan: http://repozytorium.nifc.pl/skany/pl-kk-nut--i-6
!!!ONB-nifc: UWAGA: C (skan 0060-0061, s. 117-119), T (skan 0172-0173, s. 149-151), B (skan 0281-0282, s. 145-147) Części Mszy: 1. Kyrie, 2. Et in terra, 3. Sanctus, 4. Agnus Dei
**kern	**text	**kern	**text	**kern	**text
*part3	*part3	*part2	*part2	*part1	*part1
*staff3	*staff3	*staff2	*staff2	*staff1	*staff1
*I"Baſsus.	*	*I"Tenor.	*	*I"Cantus.	*
*I'B	*	*I'T	*	*I'S	*
*clefF4	*	*clefC4	*	*clefC1	*
*k[b-]	*	*k[b-]	*	*k[b-]	*
*g:	*	*g:	*	*g:	*
*M2/2	*	*M2/2	*	*M2/2	*
*met(c|)	*	*met(c|)	*	*met(c|)	*
=1-	=1-	=1-	=1-	=1-	=1-
!LO:TX:t=P:problem:2\, 4\, 8\middle:global	!	!LO:TX:t=P:problem:2\, 4\, 8\middle:global	!	!	!
!	!	!	!	!LO:TX:t=P:problem:2\, 4\, 8\middle:global	!
4G\	A-	4B-\	A-	4.b-\	A-
4B-\	-Gnus	4d\	-Gnus	.	.
.	.	.	.	8b-\	-Gnus
4F\	De-	4c\	De-	4a\	De-
4G\	-i	8B-\	-i	8g/	-i
!	!	!	!	!LO:TX:t=P:problem:kreska pseudotaktowa	!
.	.	8B-\	qui	8g/	qui
=2-	=2-	=2-	=2-	=2-	=2-
!	!	!	!	!LO:TX:t=P:problem:# below	!
4D\	qui	4A\	tol-	4f#X/	tol-
4G\	tol-	4B-\	.	4g/	.
!	!	!	!	!LO:TX:t=P:problem:kreska pseudotaktowa	!
2F\	-lis	2c,<\	-lis	2a\	-lis
=3-	=3-	=3-	=3-	=3-	=3-
8r	.	8r	.	8r	.
8F\	qui	8B-\	qui	8b-\	qui
!	!	!LO:SIC:v:t=custos c	!	!	!
4B-\	tol-	4d\	tol-	4b-\	tol-
!	!	!LO:LB:g=original	!	!	!
8F\	-lis	8c\	-lis	8a\	-lis
8F\	pec-	8c\	pec-	8a\	pec-
8G\	-ca-	8B-\	-ca-	8g/	-ca-
!	!	!	!	!LO:TX:t=P:problem:kreska pseudotaktowa	!
8G\	-ta	8B-\	-ta	8g/	-ta
=4-	=4-	=4-	=4-	=4-	=4-
(4D/	mun-	(4A\	mun-	4fny/	mun-
4G\)	.	4B-\)	.	4g/	.
!	!	!	!	!LO:TX:t=P:problem:kreska pseudotaktowa	!
2F\	-di	2c\	-di	2a\	-di
=5-	=5-	=5-	=5-	=5-	=5-
4.G\	Mi-	4.d\	Mi-	4.b-\	Mi-
!	!	!	!	!LO:SIC:v:t=custos g	!
8F\	-ſe-	8d\	-Se-	8a\	-Se-
!	!	!	!	!LO:LB:g=original	!
8E-X\	-re-	8B-\	-re-	8g/	-re-
8C/	-re	8c\	-re	8g/	-re
!	!	!	!	!LO:TX:t=P:problem:# below	!
4D/	no-	4A/	no-	4f#X/	no-
=6-	=6-	=6-	=6-	=6-	=6-
*M3/1	*	*M3/1	*	*M3/1	*
!LO:TX:t=P:problem:cezura pod 1. linią	!	!	!	!	!
!LO:SIC:v:t=custos G	!	!LO:TX:t=P:problem:cezura na 1. polu	!	!LO:TX:t=P:problem:cezura na 1. polu	!
0GG/,<	-bis	0B-\,<	-bis	0g\,<	-bis.
!LO:LB:g=original	!	!	!	!LO:TX:t=P:problem:kreska pseudotaktowa	!
1G\	A-	1B-\	A-	1g\	A-
=7-	=7-	=7-	=7-	=7-	=7-
0F\	-gnus	0c\	-gnus	0a\	-gnus
1F\	De-	1c\	De-	1a\	De-
=8-	=8-	=8-	=8-	=8-	=8-
1B-\	-i	1d\	-i	1b-\	-i
1F\	qui	1c\	qui	1a\	qui
!	!	!	!	!LO:TX:t=P:problem:kreska pseudotaktowa	!
1G\	tol-	1B-\	tol-	1g\	tol-
=9-	=9-	=9-	=9-	=9-	=9-
!	!	!	!	!LO:TX:t=P:problem:cezura na 1. linii	!
0D\	-lis	0A\	-lis	0fny/,<	-lis
!	!	!LO:SIC:v:t=custos e	!	!LO:TX:t=P:problem:kreska pseudotaktowa	!
1BB-/	pec-	1d\	pec-	1b-\	pec-
=10-	=10-	=10-	=10-	=10-	=10-
!	!	!LO:LB:g=original	!	!	!
1.E-X\	-ca-	1.e-X\	-ca-	1.b-\	-ca-
2BB-/	-ta	2d\	-ta	2b-\	-ta
!	!	!	!	!LO:TX:t=P:problem:kreska pseudotaktowa	!
1F\	mun-	1c\	mun-	1a\	mun-
=11-	=11-	=11-	=11-	=11-	=11-
!LO:TX:t=P:problem:cezura na 1. linii	!	!LO:TX:t=P:problem:cezura na 2. polu	!	!LO:TX:t=P:problem:cezura na 2. linii	!
1BB-/,<	-di	1d\,<	-di	1b-\,<	-di
1B-\	Do-	1d\	Do-	1b-\	Do-
!	!	!	!	!LO:SIC:v:t=custos b	!
1B-\	-na	1d\	-na	1b-\	-na
=12-	=12-	=12-	=12-	=12-	=12-
1.G\	no-	1.d\	no-	1.b-\	no-
2G\	-bis	2d\	-bis	2b-\	-bis
!	!	!LO:TX:t=P:problem:♯below	!	!	!
1A\	pa-	1c#X\	pa-	1a\	pa-
=13-	=13-	=13-	=13-	=13-	=13-
!	!	!	!	!LO:SIC:v:s=1a	!
!LO:TX:t=P:problem:cezura na 1. linii	!	!LO:TX:t=P:problem:cezura na 2. linii	!	!LO:TX:t=P:problem:cezura na 1. polu	!
1D\,<	-cem	1d\,<	-cem	1b-\,<	-cem
*	*	*	*ij	*	*
1BB-/	Do-	1d\	Do-	1b-\	Do-
!LO:SIC:v:t=custos E	!	!	!	!	!
1BB-/	-na	1d\	-na	1f/	-na
=14-	=14-	=14-	=14-	=14-	=14-
!LO:LB:g=original	!	!	!	!	!
1.E-X\	no-	0B-\	no-	0g\	no-
2D/	.	.	.	.	.
1C/	-bis	1cny\	-bis	0g\	-bis
=15-	=15-	=15-	=15-	=15-	=15-
*col	*	*	*	*	*
1GG/	pa-	1B-\	pa-	.	.
!	!	!	!	!LO:TX:t=P:problem:# above	!
0D\	.	0A\	.	0f#X/	pa-
*Xcol	*	*	*	*	*
=16-	=16-	=16-	=16-	=16-	=16-
!LO:TX:b:t=A.D. 1688\nmp	!	!LO:N:vis=0	!	!LO:TX:b:i:t=A.D. 1688\nmp	!
!LO:N:vis=0	!	!LO:TX:b:i:t=1688.	!	!LO:N:vis=0	!
0.GG/	-cem	0.G/	-cem	0.g\	-cem.
*	*	*	*Xij	*	*
==	==	==	==	==	==
*-	*-	*-	*-	*-	*-
!!!system-decoration: [(s1,s2,s3)]
!!!RDF**kern: > = above
!!!RDF**kern: < = below
!!!EED: Andrzej Borzym
!!!EST: 2021-03-24
!!!ENC:Kamil Watkowski
!!!END:2021-03-09
